X:824
T:Picking the Spuds
R:reel
C:Paddy O'Brien
Z:id:hn-reel-824
M:C|
L:1/8
K:Ador
eA~A2 AcBA|GEDE GABd|eA~A2 cdeg|afge dgfg|
eA~A2 AcBA|GEDE GABd|eaaf gedB|1 DEGB ABcd:|2 DEGB ~A3B||
|:c3d eg~g2|eaaf g2fg|eA~A2 cdeg|afge dged|
c3d eg~g2|eaaf gedB|cABA GEDE|1 DEGB ~A3B:|2 DEGB ABcd||
